**kern	**kern	**dynam
*part1	*part1	*part1
*staff2	*staff1	*
*I"Piano	*	*
*clefF4	*clefG2	*
*k[f#c#g#d#]	*k[f#c#g#d#]	*
=1	=1	=1
*^	*	*
2.G# 2.B	4EE 4E	2.e 2.g#	.
.	8BB	.	.
.	4BB	.	.
.	8BB	.	.
=	=	=	=
!	!	!	!LO:DY:a
4.D# 4.A 4.B	4FF#	(4.d#	[ p
.	8BB	.	.
4.E 4.A 4.B	4EE	4.e	.
.	8BB	.	.
=	=	=	=
*	*^	*	*
2.F# 2.A 2.B	4DD#	2.DD#\	2.f#	.
.	8BB	.	.	.
.	4BB	.	.	.
.	8BB	.	.	.
*	*v	*v	*	*
=	=	=	=
!	!	!	!LO:DY:a
4.F# 4.A 4.B	4DD#	4.f#	<
.	8BB	.	.
4.G# 4.B	4CC#	4.e 4.g#	.
.	8BB	.	.
=	=	=	=
2.A	4BBB	2.B 2.d# 2.a	[
.	8BB	.	.
.	4BB	.	.
.	8BB	.	.
=	=	=	=
!	!	!	!LO:DY:a
4.G#	4BBB#X	4.d#) 4.g#	>
.	8BB#X	.	.
4.F# 4.G# 4.B#X	4GGG#	4.f#	.
.	8GG#	.	.
=	=	=	=
4.E 4.G#	4CC#	4.c# 4.e	]
.	8C#	.	.
4.F#	4AAA	4.c# 4.f#	.
.	8AA	.	.
=	=	=	=
*	*^	*	*
2.A: 2.B: 2.d#:	4BBB	2.BBB\	[4.g#	.
.	8BB	.	.	.
.	4BB	.	4g#]	.
.	8BB	.	8f#	.
*	*v	*v	*	*
=	=	=	=
2.G#	2.EE; 2.BB	2.e;	pp
*v	*v	*	*
==	==	==
*-	*-	*-
!!!system-decoration: {(s1,s2)}
